svg/building/moai_line.svg

<?xml version="1.0" encoding="UTF-8"?>
<svg width="24px" height="24px" viewBox="0 0 24 24" version="1.1" xmlns="http://www.w3.org/2000/svg" xmlns:xlink="http://www.w3.org/1999/xlink">
    <title>moai_line</title>
    <g id="页面-1" stroke="none" stroke-width="1" fill="none" fill-rule="evenodd">
        <g id="Building" transform="translate(-144.000000, -192.000000)" fill-rule="nonzero">
            <g id="moai_line" transform="translate(144.000000, 192.000000)">
                 <path d="M24,0 L24,24 L0,24 L0,0 L24,0 Z M12.5934901,23.257841 L12.5819402,23.2595131 L12.5108777,23.2950439 L12.4918791,23.2987469 L12.4918791,23.2987469 L12.4767152,23.2950439 L12.4056548,23.2595131 C12.3958229,23.2563662 12.3870493,23.2590235 12.3821421,23.2649074 L12.3780323,23.275831 L12.360941,23.7031097 L12.3658947,23.7234994 L12.3769048,23.7357139 L12.4804777,23.8096931 L12.4953491,23.8136134 L12.4953491,23.8136134 L12.5071152,23.8096931 L12.6106902,23.7357139 L12.6232938,23.7196733 L12.6232938,23.7196733 L12.6266527,23.7031097 L12.609561,23.275831 C12.6075724,23.2657013 12.6010112,23.2592993 12.5934901,23.257841 L12.5934901,23.257841 Z M12.8583906,23.1452862 L12.8445485,23.1473072 L12.6598443,23.2396597 L12.6498822,23.2499052 L12.6498822,23.2499052 L12.6471943,23.2611114 L12.6650943,23.6906389 L12.6699349,23.7034178 L12.6699349,23.7034178 L12.678386,23.7104931 L12.8793402,23.8032389 C12.8914285,23.8068999 12.9022333,23.8029875 12.9078286,23.7952264 L12.9118235,23.7811639 L12.8776777,23.1665331 C12.8752882,23.1545897 12.8674102,23.1470016 12.8583906,23.1452862 L12.8583906,23.1452862 Z M12.1430473,23.1473072 C12.1332178,23.1423925 12.1221763,23.1452606 12.1156365,23.1525954 L12.1099173,23.1665331 L12.0757714,23.7811639 C12.0751323,23.7926639 12.0828099,23.8018602 12.0926481,23.8045676 L12.108256,23.8032389 L12.3092106,23.7104931 L12.3186497,23.7024347 L12.3186497,23.7024347 L12.3225043,23.6906389 L12.340401,23.2611114 L12.337245,23.2485176 L12.337245,23.2485176 L12.3277531,23.2396597 L12.1430473,23.1473072 Z" id="MingCute" fill-rule="nonzero"></path>
                <path d="M13.1936,2 C15.2994,2 17.0446,3.63273 17.1847,5.73392 L17.2692,7.00207 C17.8194,6.96657 18.2947,7.38314 18.3314,7.93348 L18.6647,12.9335 C18.7014,13.4838 18.2856,13.9598 17.7356,13.9976 L17.8558,15.8004 C17.9596,17.3581 16.8587,18.7025 15.3732,18.9568 L15.9489,20.6838 C16.0506,20.9887 15.9994,21.3239 15.8115,21.5847 C15.6235,21.8455 15.3217,22 15.0002,22 L9.00022,22 C8.67878,22 8.37693,21.8455 8.18898,21.5847 C8.00103,21.3239 7.94989,20.9887 8.05154,20.6838 L8.6272,18.9568 C7.14174,18.7025 6.0408,17.3581 6.14464,15.8004 L6.26483,13.9976 C5.71485,13.9598 5.29906,13.4838 5.33575,12.9335 L5.66908,7.93348 C5.70577,7.38315 6.18106,6.96658 6.7312,7.00207 L6.81574,5.73392 C6.95582,3.63273 8.70102,2 10.8069,2 L13.1936,2 Z M13.2795,19 L10.721,19 L10.3876,20 L13.6128,20 L13.2795,19 Z M13.1936,4 L10.8069,4 C9.75395,4 8.88135,4.81637 8.81131,5.86696 L8.14021,15.9335 C8.10173,16.5107 8.55953,17 9.13799,17 L14.8624,17 C15.4409,17 15.8987,16.5107 15.8602,15.9335 L15.1891,5.86696 C15.1191,4.81637 14.2465,4 13.1936,4 Z M11.5223,10.0531 C11.6574467,9.61390133 12.2467907,9.58462142 12.442497,9.96526027 L12.4781,10.0531 L13.602,13.7059 C13.7882588,14.3111706 13.3733163,14.9234391 12.7629373,14.9933763 L12.6463,15 L11.3542,15 C10.7209765,15 10.2577405,14.4233356 10.3704237,13.8193361 L10.3984,13.7059 L11.5223,10.0531 Z M10.5002,7 C11.0525,7 11.5002,7.44772 11.5002,8 C11.5002,8.55228 11.0525,9 10.5002,9 L10.0002,9 C9.44794,9 9.00022,8.55228 9.00022,8 C9.00022,7.44772 9.44794,7 10.0002,7 L10.5002,7 Z M14.0002,7 C14.5525,7 15.0002,7.44772 15.0002,8 C15.0002,8.51283143 14.614173,8.93550653 14.1168239,8.9932722 L14.0002,9 L13.5002,9 C12.9479,9 12.5002,8.55228 12.5002,8 C12.5002,7.48716857 12.886227,7.06449347 13.3835761,7.0067278 L13.5002,7 L14.0002,7 Z" id="形状" fill="#09244B"></path>
            </g>
        </g>
    </g>
</svg>

<svg xmlns="http://www.w3.org/2000/svg" width="24" height="24"><g fill="none" fill-rule="nonzero"><path d="M24 0v24H0V0h24ZM12.593 23.258l-.011.002-.071.035-.02.004-.014-.004-.071-.035c-.01-.004-.019-.001-.024.005l-.004.01-.017.428.005.02.01.013.104.074.015.004.012-.004.104-.074.012-.016.004-.017-.017-.427c-.002-.01-.009-.017-.017-.018Zm.265-.113-.013.002-.185.093-.01.01-.003.011.018.43.005.012.008.007.201.093c.012.004.023 0 .029-.008l.004-.014-.034-.614c-.003-.012-.01-.02-.02-.022Zm-.715.002a.023.023 0 0 0-.027.006l-.006.014-.034.614c0 .012.007.02.017.024l.015-.002.201-.093.01-.008.004-.011.017-.43-.003-.012-.01-.01-.184-.092Z"/><path fill="#09244B" d="M13.194 2a4 4 0 0 1 3.99 3.734l.085 1.268a1 1 0 0 1 1.062.931l.334 5a1 1 0 0 1-.93 1.065l.12 1.802a3.001 3.001 0 0 1-2.482 3.157l.576 1.727A1 1 0 0 1 15 22H9a1 1 0 0 1-.948-1.316l.575-1.727A3 3 0 0 1 6.145 15.8l.12-1.802a1 1 0 0 1-.93-1.064l.334-5a1 1 0 0 1 1.062-.932l.085-1.268A4 4 0 0 1 10.806 2h2.388Zm.085 17h-2.558l-.333 1h3.225l-.333-1Zm-.085-15h-2.387A2 2 0 0 0 8.81 5.867l-.67 10.067A1 1 0 0 0 9.137 17h5.724a1 1 0 0 0 .998-1.066l-.67-10.067A2 2 0 0 0 13.193 4Zm-1.672 6.053c.135-.44.725-.468.92-.088l.036.088 1.124 3.653a1 1 0 0 1-.84 1.287l-.116.007h-1.292a1 1 0 0 1-.984-1.18l.028-.114 1.124-3.653ZM10.5 7a1 1 0 1 1 0 2H10a1 1 0 0 1 0-2h.5ZM14 7a1 1 0 0 1 .117 1.993L14 9h-.5a1 1 0 0 1-.116-1.993L13.5 7h.5Z"/></g></svg>
